React/src/assets/images/frontend/angular.svg

<svg width="130" height="130" viewBox="0 0 130 130" fill="none" xmlns="http://www.w3.org/2000/svg">
<path d="M65 13.5416L112.883 30.6041L105.625 93.9791L65 116.458L24.375 93.9791L17.1167 30.6041L65 13.5416V13.5416ZM65 24.9166L35.0458 92.0833H46.2042L52.2167 77.025H77.675L83.6875 92.0833H94.7917L65 24.9166V24.9166ZM73.775 67.7083H56.2792L65 46.7458L73.775 67.7083Z" fill="#E53935"/>
</svg>

<svg width="130" height="130" fill="none" xmlns="http://www.w3.org/2000/svg"><path d="M65 13.542l47.883 17.062-7.258 63.375L65 116.458 24.375 93.979l-7.258-63.375L65 13.542zm0 11.375L35.046 92.083h11.158l6.013-15.058h25.458l6.013 15.058h11.104L65 24.917zm8.775 42.791H56.279L65 46.746l8.775 20.962z" fill="#E53935"/></svg>
